!!!!SEGMENT: pl-gd--ms-4006--003-002_marenzio-luca--missa-super-ego-sum-panis-vivus-gloria-et-in-terra-pax.krn
!!!cenid: 16xx:1745
!!!COM: Marenzio, Luca
!!!COM-rismID: pe30003955
!!!CDT: ~1553-1599/08/22
!!!CNT: Italian
!!!OPR: Missa super Ego sum panis vivus
!!!OTL: Gloria/Et in terra pax
!!!OMV: 002
!!!PDT:
!!!AGN:
!!!SMS-siglum: PL-GD
!!!SMS-shelfmark: Ms 4006
!!!SMS-variant:
!!!SMS-altvar:
!!!SMS-shelfwork: 003-002 M
!!!NIFC-rismSourceID: 305000517
!!!NIFC-islandoraID: pl-gd:71737
!!!URL-pdf-islandora: https://repozytorium.nifc.pl/islandora/object/pl-gd%3A71737/datastream/PDF/view#page=87
!!!URL-scan: https://polish.musicsources.pl/pl/lokalizacje/galeria/rekopisy/5105 @EN{Scan on Polish Music Sources Website} @PL{Skany w portalu Dziedzictwo Muzyki Polskiej w otwartym dostępie}
!!!ONB-nifc: UWAGA: msza z nr 54. 6 ksiąg głosowych. Dla V6 i V7 -puste pięciolinie. Części 1. Kyrie eleison, 2. Gloria/Et in terra pax. Skany: Bassus: 85r-86r (skan 0087-0088), Tenor: 88r-89r (skan 0238-0239), Quintavox: 88v-89r (skan 0391), Octavavox: 83r-84r (skan 0534-0535), Altus: 86v-87v (skan 0682-0683), Discantus: 89r-90r (skan 0835-0836)
!!!AIN: 1 alto 1 bass 1 soprn 1 tenor 2 vox
!!!key: g
**kern	**text	**kern	**text	**kern	**text	**kern	**text	**kern	**text	**kern	**text
*part6	*part6	*part5	*part5	*part4	*part4	*part3	*part3	*part2	*part2	*part1	*part1
*staff6	*staff6	*staff5	*staff5	*staff4	*staff4	*staff3	*staff3	*staff2	*staff2	*staff1	*staff1
*I"OCTAVAVOX	*	*I"QVINTAVOX	*	*I"BASSVS.	*	*I"TENOR	*	*I"ALTVS	*	*I"DISCANTVS	*
*I'V 8	*	*I'V 5	*	*I'B	*	*I'T	*	*I'A	*	*I'S	*
*ICvox	*	*ICvox	*	*ICvox	*	*ICvox	*	*ICvox	*	*ICvox	*
*Ivox	*	*Ivox	*	*Ibass	*	*Itenor	*	*Ialto	*	*Isoprn	*
*clefF4	*	*clefC1	*	*clefF4	*	*clefC4	*	*clefC3	*	*clefC1	*
*k[b-]	*	*k[b-]	*	*k[b-]	*	*k[b-]	*	*k[b-]	*	*k[b-]	*
*g:	*	*g:	*	*g:	*	*g:	*	*g:	*	*g:	*
*M2/1	*	*M2/1	*	*M2/1	*	*M2/1	*	*M2/1	*	*M2/1	*
*met(C|)	*	*met(C|)	*	*met(C|)	*	*met(C|)	*	*met(C|)	*	*met(C|)	*
=1-	=1-	=1-	=1-	=1-	=1-	=1-	=1-	=1-	=1-	=1-	=1-
!LO:TX:b:t=Et in terra.	!	!LO:TX:b:t=Et in terra&colon;	!	!	!	!LO:TX:b:t=Et in terra&colon;	!	!	!	!	!
00r	.	00r	.	00r	.	00r	.	1r	.	1.g	Et
.	.	.	.	.	.	.	.	1.g	Et	.	.
.	.	.	.	.	.	.	.	.	.	2g/	in
=2-	=2-	=2-	=2-	=2-	=2-	=2-	=2-	=2-	=2-	=2-	=2-
.	.	.	.	.	.	.	.	.	.	1b-	ter-
.	.	.	.	.	.	.	.	2g\	in	.	.
.	.	.	.	.	.	.	.	2f\	ter-	1cc	-ra
.	.	.	.	.	.	.	.	2e\	-ra	.	.
=3-	=3-	=3-	=3-	=3-	=3-	=3-	=3-	=3-	=3-	=3-	=3-
00r	.	00r	.	1r	.	00r	.	4d\	pax	1dd	pax
.	.	.	.	.	.	.	.	4c/	.	.	.
.	.	.	.	.	.	.	.	4B-/	ho-	.	.
.	.	.	.	.	.	.	.	4c/	.	.	.
*	*	*	*	*	*	*	*	*	*	*	*ij
.	.	.	.	1.G	Et	.	.	1d	-mi-	1.b-	Et
=4-	=4-	=4-	=4-	=4-	=4-	=4-	=4-	=4-	=4-	=4-	=4-
.	.	.	.	.	.	.	.	2.d\	.	.	.
.	.	.	.	2G\	in	.	.	.	.	2b-\	in
.	.	.	.	.	.	.	.	4e\	.	.	.
.	.	.	.	2F\	ter-	.	.	4f\	.	2a\	ter-
.	.	.	.	.	.	.	.	4F/	-ni-	.	.
.	.	.	.	2E\	-ra	.	.	2G/	-bus	2g/	-ra
=5-	=5-	=5-	=5-	=5-	=5-	=5-	=5-	=5-	=5-	=5-	=5-
00r	.	00r	.	0D	pax	00r	.	2.A/	.	2f/	pax
*	*	*	*	*	*	*	*	*	*	*	*Xij
.	.	.	.	.	.	.	.	.	.	4d/	ho-
.	.	.	.	.	.	.	.	4G/	.	4e/	-mi-
.	.	.	.	.	.	.	.	2F/	.	4f/	.
.	.	.	.	.	.	.	.	.	.	4g/	.
.	.	.	.	.	.	.	.	2f\	.	4a\	.
.	.	.	.	.	.	.	.	.	.	4b-\	.
=6-	=6-	=6-	=6-	=6-	=6-	=6-	=6-	=6-	=6-	=6-	=6-
.	.	.	.	2.C/	ho-	.	.	1.e	.	2.cc\	.
.	.	.	.	4D/	-mi-	.	.	.	.	8b-\L	.
.	.	.	.	.	.	.	.	.	.	8a\J	.
.	.	.	.	2E\	.	.	.	.	.	2g/	.
.	.	.	.	2F\	.	.	.	4d\	.	2.a\	.
.	.	.	.	.	.	.	.	4c\	.	.	.
=7-	=7-	=7-	=7-	=7-	=7-	=7-	=7-	=7-	=7-	=7-	=7-
0r	.	0r	.	2.BB-/	.	0r	.	00d	.	.	.
.	.	.	.	.	.	.	.	.	.	4g/	.
.	.	.	.	.	.	.	.	.	.	1g	.
.	.	.	.	4C/	.	.	.	.	.	.	.
.	.	.	.	1.D	.	.	.	.	.	.	.
!	!	!	!	!	!	!	!	!	!	!LO:TX:a:t=P:problem:# below	!
.	.	.	.	.	.	.	.	.	.	4f#X/	.
.	.	.	.	.	.	.	.	.	.	4e/	.
*	*	*	*	*	*	*	*	*	*	*custos:f#	*
!	!	!	!	!	!	!	!	!	!	!LO:LB:g=original	!
=8-	=8-	=8-	=8-	=8-	=8-	=8-	=8-	=8-	=8-	=8-	=8-
!	!	!	!	!	!	!	!	!	!	!LO:TX:a:t=P:problem:# below	!
1r	.	1r	.	.	.	1r	.	.	.	2f#X/	.
.	.	.	.	2D/	-ni-	.	.	.	.	2f#/	-ni-
2r	.	2r	.	1GG	-bus,	2r	.	.	.	1g	-bus,
1G\	Bo-	1b-\	Bo-	.	.	1B-\	Bo-	.	.	.	.
=9-	=9-	=9-	=9-	=9-	=9-	=9-	=9-	=9-	=9-	=9-	=9-
.	.	.	.	1r	.	.	.	0r	.	0r	.
2F\	-næ	2a\	-næ	.	.	2c\	-næ	.	.	.	.
2E-X\	vo-	2g/	vo-	0r	.	4G/	vo-	.	.	.	.
.	.	.	.	.	.	4G/	-lun-	.	.	.	.
2D/	-l(un)-	2f/	-lun-	.	.	1B-\	-ta-	.	.	.	.
=10-	=10-	=10-	=10-	=10-	=10-	=10-	=10-	=10-	=10-	=10-	=10-
1C	-ta-	1e-X	-ta-	.	.	.	.	1r	.	1r	.
.	.	.	.	.	.	2A/	-tis,	.	.	.	.
1BB-	-tis,	1d	-tis,	2r	.	1B-	.	2r	.	2r	.
.	.	.	.	1B-\	bo-	.	.	1f\	bo-	1dd\	bo-
=11-	=11-	=11-	=11-	=11-	=11-	=11-	=11-	=11-	=11-	=11-	=11-
0r	.	0r	.	.	.	0r	.	.	.	.	.
.	.	.	.	2A\	-næ	.	.	2c/	-næ	2cc\	-næ
.	.	.	.	2G\	vo-	.	.	2.d\	vo-	2b-\	vo-
.	.	.	.	2F\	-lun-	.	.	.	.	2a\	-lun-
.	.	.	.	.	.	.	.	4A/	-lun-	.	.
=12-	=12-	=12-	=12-	=12-	=12-	=12-	=12-	=12-	=12-	=12-	=12-
1r	.	1r	.	1E-X	-ta-	1r	.	2B-/	-ta-	1g	-ta-
.	.	.	.	.	.	.	.	2c/	.	.	.
2r	.	2r	.	1D	-tis,	2r	.	1d	-tis,	1fny	-tis,
1D\	Lau-	1a\	Lau-	.	.	1d\	Lau-	.	.	.	.
=13-	=13-	=13-	=13-	=13-	=13-	=13-	=13-	=13-	=13-	=13-	=13-
!	!	!	!	!	!	!	!	!	!	!LO:N:vis=1	!
.	.	.	.	0r	.	.	.	0r	.	0r	.
1F	-da-	1a	-da-	.	.	1c	-da-	.	.	.	.
!	!	!	!	!	!	!LO:N:acc=#	!	!	!	!	!
2G\	-mus	2g/	-mus	.	.	2Bn\	-mus	.	.	.	.
=14-	=14-	=14-	=14-	=14-	=14-	=14-	=14-	=14-	=14-	=14-	=14-
!	!	!	!	!	!	!	!	!	!	!LO:N:vis=0	!
0C	te,	0g	te,	1r	.	0c	te,	1r	.	1r	.
!	!	!	!	!	!	!	!	!LO:LB:g=original	!	!	!
.	.	.	.	1C	be-	.	.	1e	Be-	1cc	be-
*	*	*	*	*custos:C	*	*	*	*	*	*	*
!	!	!	!	!LO:PB:g=original	!	!	!	!	!	!	!
=15-	=15-	=15-	=15-	=15-	=15-	=15-	=15-	=15-	=15-	=15-	=15-
00r	.	0r	.	2C/	-ne-	00r	.	2e\	-ne-	2g/	-ne-
.	.	.	.	1F	-di-	.	.	1f	-di-	2.a\	-di-
.	.	.	.	.	.	.	.	.	.	4a\	-ci-
.	.	.	.	2G\	-ci-	.	.	2d\	-ci-	1g\	-mus
=16-	=16-	=16-	=16-	=16-	=16-	=16-	=16-	=16-	=16-	=16-	=16-
.	.	1r	.	0D	-mus	.	.	0d	-mus	.	.
.	.	.	.	.	.	.	.	.	.	4f/	.
.	.	.	.	.	.	.	.	.	.	4e/	.
!	!	!	!	!	!	!	!	!	!	!LO:TX:a:t=P:problem:# below	!
.	.	1r	.	.	.	.	.	.	.	1f#X	.
=17-	=17-	=17-	=17-	=17-	=17-	=17-	=17-	=17-	=17-	=17-	=17-
0r	.	0r	.	0GG,<	te,	0r	.	0d	te	0g,	te,
=18-	=18-	=18-	=18-	=18-	=18-	=18-	=18-	=18-	=18-	=18-	=18-
1.C	a-	1.cc	a-	1.C	a-	1.G	a-	1.e	a-	1.g	a-
2C/	-do-	2cc\	-do-	2C/	-do-	2G/	-do-	2e\	-do-	2g/	-do-
=19-	=19-	=19-	=19-	=19-	=19-	=19-	=19-	=19-	=19-	=19-	=19-
1C	-ra-	1g	-ra-	1C	-ra-	1G	-ra-	1e	-ra-	1cc	-ra-
1C	-m(us)	1g	-mus	1Eny	-mus	1G	-mus	1e	-mus	1cc	-mus
*	*	*	*	*	*	*	*	*	*	*custos:cc	*
!	!	!	!	!	!	!	!	!	!	!LO:PB:g=original	!
=20-	=20-	=20-	=20-	=20-	=20-	=20-	=20-	=20-	=20-	=20-	=20-
0FF	te,	0a	te,	0F	te,	0F	te	0A	te	0cc	te,
*	*	*	*	*	*	*custos:A	*	*	*	*	*
!	!	!	!	!	!	!LO:LB:g=original	!	!	!	!	!
=21-	=21-	=21-	=21-	=21-	=21-	=21-	=21-	=21-	=21-	=21-	=21-
00r	.	00r	.	1BB-,<	glo-	00r	.	1f	glo-	1dd,	glo-
.	.	.	.	1.B-	-ri-	.	.	1.f	-ri-	1.b-	-ri-
=22-	=22-	=22-	=22-	=22-	=22-	=22-	=22-	=22-	=22-	=22-	=22-
.	.	.	.	2F\	-fi-	.	.	2f\	-fi-	2a\	-fi-
.	.	.	.	1G	-ca-	.	.	4e-X\	-ca-	1g	-ca-
.	.	.	.	.	.	.	.	4d\	.	.	.
.	.	.	.	.	.	.	.	1d\	.	.	.
=23-	=23-	=23-	=23-	=23-	=23-	=23-	=23-	=23-	=23-	=23-	=23-
0r	.	0r	.	1E-X	-mus	0r	.	.	.	1g	-mus
.	.	.	.	.	.	.	.	2c/	-mus	.	.
.	.	.	.	0.D	te,	.	.	0.d	te,	0.f#X	te,
=24-	=24-	=24-	=24-	=24-	=24-	=24-	=24-	=24-	=24-	=24-	=24-
1.D	Gra-	1.f#X	gra-	.	.	1.A	Gra-	.	.	.	.
2D/	-ti-	2f#/	-ti-	.	.	2A/	-ti-	.	.	.	.
!LO:LB:g=original	!	!	!	!	!	!	!	!	!	!	!
=25-	=25-	=25-	=25-	=25-	=25-	=25-	=25-	=25-	=25-	=25-	=25-
!	!	!	!	!	!	!LO:N:acc=#	!	!	!	!	!
0GG	-as	0g	-as,	2r	.	0Bn	-as	2r	.	2r	.
.	.	.	.	1G	Gra-	.	.	1d	Gra-	1g	gra-
.	.	.	.	2G\	-ti-	.	.	2d\	-ti-	2g/	-ti-
*	*	*custos:g	*	*	*	*	*	*	*	*	*
!	!	!LO:LB:g=original	!	!	!	!	!	!	!	!	!
=26-	=26-	=26-	=26-	=26-	=26-	=26-	=26-	=26-	=26-	=26-	=26-
2r	.	2r	.	0C	-as	2r	.	0eny	-as	0g	-as
1C	a-	1g	a-	.	.	1c	a-	.	.	.	.
2C/	-gi-	2g/	-gi-	.	.	2c\	-gi-	.	.	.	.
=27-	=27-	=27-	=27-	=27-	=27-	=27-	=27-	=27-	=27-	=27-	=27-
0FF	-mus	1a	-mus	2r	.	2.c\	-mus	2r	.	2r	.
.	.	.	.	1F	a-	.	.	1f	a-	1a	a-
.	.	.	.	.	.	4B-y\	.	.	.	.	.
.	.	0.fny	ti-	.	.	1A	.	.	.	.	.
.	.	.	.	2F\	-gi-	.	.	2f\	-gi-	2a\	-gi-
=28-	=28-	=28-	=28-	=28-	=28-	=28-	=28-	=28-	=28-	=28-	=28-
0BB-	ti-	.	.	0BB-	-mus	0F	ti-	2.f\	-mus	0b-	-mus
.	.	.	.	.	.	.	.	4e\	.	.	.
.	.	.	.	.	.	.	.	1d	.	.	.
*	*	*	*	*custos:E-	*	*	*	*	*	*	*
!	!	!	!	!LO:LB:g=original	!	!	!	!LO:PB:g=original	!	!	!
=29-	=29-	=29-	=29-	=29-	=29-	=29-	=29-	=29-	=29-	=29-	=29-
0EE-X	-bi,	0g	-bi,	0E-X	ti-	0E-X	-bi,	0e-X	ti-	2.b-\	ti-
.	.	.	.	.	.	.	.	.	.	4a\	.
.	.	.	.	.	.	.	.	.	.	1g	.
=30-	=30-	=30-	=30-	=30-	=30-	=30-	=30-	=30-	=30-	=30-	=30-
!	!	!	!	!LO:N:vis=0.	!	!	!	!	!	!	!
2r	.	2r	.	2%5BB-	-bi	2r	.	0d	-bi	0fny	-bi,
1BB-	p(ro-	1b-	p(ro)-	.	.	1F	p(ro)-	.	.	.	.
2BB-/	-pter)	2f/	-p(ter)	.	.	2B-\	-p(ter)	.	.	.	.
=31-	=31-	=31-	=31-	=31-	=31-	=31-	=31-	=31-	=31-	=31-	=31-
1FF	ma-	1a	ma-	.	.	1c	ma-	2r	.	2r	.
.	.	.	.	1F	p(ro-	.	.	1f	p(ro)-	1a	p(ro)-
1FF	-gna(m)	1a	-gna(m),	.	.	1A	-gma(m),	.	.	.	.
.	.	.	.	2F\	-pter)	.	.	2f\	-p(ter)	2a\	-p(ter)
=32-	=32-	=32-	=32-	=32-	=32-	=32-	=32-	=32-	=32-	=32-	=32-
2r	.	2r	.	1C	ma-	2r	.	1eny	ma-	1g	ma-
2.C/	glo-	2.g/	glo-	.	.	2.c\	glo-	.	.	.	.
.	.	.	.	1C	-gna(m)	.	.	1e	-gnam,	1g	-gna(m),
4C/	-ri-	4g/	-ri-	.	.	4c\	-ri-	.	.	.	.
2C/	-a(m)	2g/	-a(m)	.	.	2G/	-a(m)	.	.	.	.
=33-	=33-	=33-	=33-	=33-	=33-	=33-	=33-	=33-	=33-	=33-	=33-
1GG	tu-	1g	tu-	2r	.	1B-	tu-	2r	.	2r	.
.	.	.	.	2.G\	glo-	.	.	2.g\	glo-	2.b-\	glo-
1GG	-a(m),	1g	-am,	.	.	1B-	-a(m),	.	.	.	.
.	.	.	.	4G\	-ri-	.	.	4g\	-ri-	4b-\	-ri-
.	.	.	.	2G\	-am	.	.	2d\	-a(m)	2b-\	-a(m)
*	*	*	*	*	*	*	*	*	*	*custos:a	*
!	!	!	!	!	!	!	!	!	!	!LO:LB:g=original	!
=34-	=34-	=34-	=34-	=34-	=34-	=34-	=34-	=34-	=34-	=34-	=34-
2r	.	2r	.	1D	tu-	2r	.	1f	tu-	1a	tu-
*	*	*	*ij	*	*	*	*	*	*	*	*
2.D/	glo-	2.a\	glo-	.	.	2.d\	glo-	.	.	.	.
.	.	.	.	1D	-am	.	.	1f	-a(m).	1a	-am,
4D/	-ri-	4a\	-ri-	.	.	4d\	-ri-	.	.	.	.
2D/	-a(m)	2f/	-a(m)	.	.	2A/	-am	.	.	.	.
*	*	*	*	*	*	*custos:A	*	*	*	*	*
!	!	!	!	!	!	!LO:PB:g=original	!	!	!	!	!
=35-	=35-	=35-	=35-	=35-	=35-	=35-	=35-	=35-	=35-	=35-	=35-
0AA	tu-	0eny	tu-	0r	.	0A	tu-	0r	.	0r	.
=36-	=36-	=36-	=36-	=36-	=36-	=36-	=36-	=36-	=36-	=36-	=36-
0D	-a(m),	0f#X	-am,	1r	.	0A	-am,	1r	.	1r	.
.	.	.	.	1.D	Do-	.	.	1.d	Do-	1.f#X	Do-
*	*	*	*Xij	*	*	*	*	*	*	*	*
=37-	=37-	=37-	=37-	=37-	=37-	=37-	=37-	=37-	=37-	=37-	=37-
00r	.	00r	.	.	.	00r	.	.	.	.	.
.	.	.	.	2D/	-i-	.	.	2d\	-mi-	2f#yX/	-mi-
.	.	.	.	1D	-ne	.	.	1d	-ne	1f#	-ne
=38-	=38-	=38-	=38-	=38-	=38-	=38-	=38-	=38-	=38-	=38-	=38-
.	.	.	.	1G	DE-	.	.	1d	DE-	1g	DE-
.	.	.	.	2F\	-VS	.	.	2f\	-VS	2a\	-VS
.	.	.	.	1B-\	Rex	.	.	1f\	Rex	1b-\	Rex
=39-	=39-	=39-	=39-	=39-	=39-	=39-	=39-	=39-	=39-	=39-	=39-
0r	.	0r	.	.	.	0r	.	.	.	.	.
.	.	.	.	2E-X\	coe-	.	.	4e-X\	.	2g/	coe-
.	.	.	.	.	.	.	.	4d\	.	.	.
.	.	.	.	0F	-leſ-	.	.	2c/	.	0fny	-leſ-
.	.	.	.	.	.	.	.	2B-/	coe-	.	.
=40-	=40-	=40-	=40-	=40-	=40-	=40-	=40-	=40-	=40-	=40-	=40-
1r	.	1r	.	.	.	1r	.	1c	-le-	.	.
2r	.	2r	.	1BB-	-tis,	2r	.	1d	-ſtis,	1f	-tis,
1BB-/	DE-	1b-\	DE-	.	.	1d\	De-	.	.	.	.
=41-	=41-	=41-	=41-	=41-	=41-	=41-	=41-	=41-	=41-	=41-	=41-
.	.	.	.	00r	.	.	.	00r	.	00r	.
2F\	-VS	2a\	-VS	.	.	2c\	-us	.	.	.	.
*	*	*custos:g	*	*	*	*	*	*	*	*	*
!	!	!LO:LB:g=original	!	!	!	!	!	!	!	!	!
1G	Pa-	1g	Pa-	.	.	1B-	Pa-	.	.	.	.
*custos:D	*	*	*	*	*	*	*	*	*	*	*
!LO:LB:g=original	!	!	!	!	!	!	!	!	!	!	!
=42-	=42-	=42-	=42-	=42-	=42-	=42-	=42-	=42-	=42-	=42-	=42-
2D/	-ter	2f#X/	-ter	.	.	2A/	-ter	.	.	.	.
2G\	(om)-	2g/	om-	.	.	2B-\	om-	.	.	.	.
2F\	-ni-	2a\	-ni-	.	.	2c\	-ni-	.	.	.	.
!	!	!LO:N:acc=#	!	!	!	!	!	!	!	!	!
2D/	-po-	2bn\	-po-	.	.	2d\	-po-	.	.	.	.
=43-	=43-	=43-	=43-	=43-	=43-	=43-	=43-	=43-	=43-	=43-	=43-
0C,	-t(ens)	0cc,	-tens,	1r	.	0G,<	-tens,	1r	.	1r	.
.	.	.	.	1.C	Do-	.	.	1.eny	Do-	1.g	Do-
=44-	=44-	=44-	=44-	=44-	=44-	=44-	=44-	=44-	=44-	=44-	=44-
1.C	D(o-	1.g	Do-	.	.	1.G	Do-	.	.	.	.
.	.	.	.	2C/	-mi-	.	.	2e\	-mi-	2cc\	-mi-
*	*	*	*	*custos:C	*	*	*	*	*	*	*
!	!	!	!	!LO:LB:g=original	!	!	!	!	!	!	!
.	.	.	.	0C	-ne	.	.	0e	-ne	0cc	-ne
2C/	-mi)-	2g/	-mi-	.	.	2Eny/	-mi-	.	.	.	.
=45-	=45-	=45-	=45-	=45-	=45-	=45-	=45-	=45-	=45-	=45-	=45-
1C	-ne	1g	-ne	.	.	1G	-ne	.	.	.	.
1FF	Fi-	1a	fi-	1F	fi-	1F	fi-	1f	fi-	1cc	fi-
*	*	*	*	*	*	*	*	*custos:f	*	*	*
!	!	!	!	!	!	!	!	!LO:LB:g=original	!	!	!
=46-	=46-	=46-	=46-	=46-	=46-	=46-	=46-	=46-	=46-	=46-	=46-
1FF	-li	1a	-li	1F	-li	1F	-li	1f	-li	1cc	-li
1.BB-	u-	1.b-y	u-	1.BB-	u-	1.F	u-	1.f	u-	1.dd	u-
=47-	=47-	=47-	=47-	=47-	=47-	=47-	=47-	=47-	=47-	=47-	=47-
2BB-/	-ni-	2b-\	-ni-	2BB-/	-ni-	2F/	-ni-	2f\	-ni-	2dd\	-ni-
2.BB-/	-ge-	2.b-\	-ge-	2.B-\	-ge-	2.F/	-ge-	2.f\	-ge-	2.dd\	-ge-
4BB-/	-mi-	4b-\	-ni-	4B-\	-ni-	4F/	-ni-	4f\	-ni-	4dd\	-ni-
=48-	=48-	=48-	=48-	=48-	=48-	=48-	=48-	=48-	=48-	=48-	=48-
0BB-	-te	0b-	-te,	2.BB-/	-te	1F	-te	0f	-te	0dd	-te
.	.	.	.	4C/	.	.	.	.	.	.	.
.	.	.	.	1D,	.	0.D	Je-	.	.	.	.
=49-	=49-	=49-	=49-	=49-	=49-	=49-	=49-	=49-	=49-	=49-	=49-
0GG	Je-	1dd	Je-	0G	Je-	.	.	0g	Je-	0b-	Je-
.	.	2g/	-su	.	.	.	.	.	.	.	.
.	.	2.dd\	Chri-	.	.	.	.	.	.	.	.
=50-	=50-	=50-	=50-	=50-	=50-	=50-	=50-	=50-	=50-	=50-	=50-
0GG	-su	.	.	0G	-su	0D	-su	0d	-su	0b-	-su
.	.	4cc\	.	.	.	.	.	.	.	.	.
.	.	2.b-\	.	.	.	.	.	.	.	.	.
.	.	4a\	.	.	.	.	.	.	.	.	.
.	.	1g\	.	.	.	.	.	.	.	.	.
*	*	*	*	*	*	*	*	*	*	*custos:a	*
!	!	!	!	!	!	!	!	!	!	!LO:LB:g=original	!
=51-	=51-	=51-	=51-	=51-	=51-	=51-	=51-	=51-	=51-	=51-	=51-
0D	Chri-	.	.	0D	Chri-	0D	Chri-	0d	Chri-	0a	Chri-
.	.	4fny/	.	.	.	.	.	.	.	.	.
.	.	4e/	.	.	.	.	.	.	.	.	.
*	*	*custos:f#	*	*	*	*	*	*	*	*	*
!	!	!LO:LB:g=original	!	!	!	!	!	!	!	!	!
.	.	1f#X	.	.	.	.	.	.	.	.	.
=52-	=52-	=52-	=52-	=52-	=52-	=52-	=52-	=52-	=52-	=52-	=52-
!	!	!	!	!	!	!	!	!	!	!LO:N:acc=#	!
0GG	-ste,	0g	-ste,	0G,	-ſte,	0D	-ſte,	0d	-ſte,	0bn	-ſte,
*	*	*	*	*	*	*custos:E	*	*	*	*	*
!	!	!	!	!	!	!LO:LB:g=original	!	!	!	!	!
=53-	=53-	=53-	=53-	=53-	=53-	=53-	=53-	=53-	=53-	=53-	=53-
00r	.	0r	.	1.C	Do-	00r	.	1.e	Do-	1.cc	Do-
.	.	.	.	2C/	-mi-	.	.	2A/	-mi-	2f/	-mi-
=54-	=54-	=54-	=54-	=54-	=54-	=54-	=54-	=54-	=54-	=54-	=54-
.	.	0r	.	1Eny	-ne	.	.	1.c	-ne	1g	-ne
.	.	.	.	1F	DE-	.	.	.	.	1a	DE-
.	.	.	.	.	.	.	.	2f\	DE-	.	.
=55-	=55-	=55-	=55-	=55-	=55-	=55-	=55-	=55-	=55-	=55-	=55-
2r	.	2r	.	1C	-VS	2r	.	1e	-VS	1g	-VS
1C	D(o-	1g	Do-	.	.	1E	Do-	.	.	.	.
.	.	.	.	1C	a-	.	.	1e	a-	1g	a-
2D/	-mi-	2f/	-mi-	.	.	2F/	-mi-	.	.	.	.
=56-	=56-	=56-	=56-	=56-	=56-	=56-	=56-	=56-	=56-	=56-	=56-
1E	-ne)	1e	-ne	1C	-gnus	2G/	-ne	1e	-gnus	1g	-gnus
.	.	.	.	.	.	4c\	DE-	.	.	.	.
.	.	.	.	.	.	4B-\	.	.	.	.	.
1F	DE-	1cc	DE-	1FF	DE-	4A/	.	1A	DE-	1a	DE-
.	.	.	.	.	.	4G/	.	.	.	.	.
.	.	.	.	.	.	2F/	.	.	.	.	.
=57-	=57-	=57-	=57-	=57-	=57-	=57-	=57-	=57-	=57-	=57-	=57-
1C	-VS	1cc	-VS	1C	-i,	1E	-us	1e	-I,	1g	-I
1C	A-	1g	a-	2r	.	1c	A-	2r	.	2r	.
.	.	.	.	2.C/	fi-	.	.	2.e\	fi-	2.g/	fi-
*custos:C	*	*	*	*	*	*	*	*	*	*	*
!LO:PB:g=original	!	!	!	!	!	!	!	!	!	!	!
=58-	=58-	=58-	=58-	=58-	=58-	=58-	=58-	=58-	=58-	=58-	=58-
1C	-gnus	1g	-gnus	.	.	1c	-gnus	.	.	.	.
.	.	.	.	4D/	-li-	.	.	4d\	-li-	4f/	-li-
*	*	*	*	*custos:E	*	*	*	*	*	*	*
!	!	!	!	!LO:LB:g=original	!	!	!	!	!	!	!
.	.	.	.	2E\	-us	.	.	2c/	-us	2e/	-us
1FF	DE-	1a	DE-	1F	Pa-	1c	DE-	1A	Pa-	1cc	Pa-
=59-	=59-	=59-	=59-	=59-	=59-	=59-	=59-	=59-	=59-	=59-	=59-
2C,/	-I,	2g/	-I	0C	-tris,	2c\	-I	0e	-tris,	0cc	-tris
2.C/	Fi-	2.g/	fi-	.	.	2G/	Fi-	.	.	.	.
.	.	.	.	.	.	2G/	-li-	.	.	.	.
4D/	-li-	4f/	-li-	.	.	.	.	.	.	.	.
2E\	-us	2e/	-us	.	.	2C/	-us	.	.	.	.
=60-	=60-	=60-	=60-	=60-	=60-	=60-	=60-	=60-	=60-	=60-	=60-
1F	Pa-	1a	Pa-	2r	.	1c	Pa-	2r	.	2r	.
*	*	*	*	*	*	*	*	*	*ij	*	*ij
.	.	.	.	2.FF/	fi-	.	.	2.A/	fi-	2.cc\	fi-
1F	-tris,	1a	-tris,	.	.	1c	-tris,	.	.	.	.
.	.	.	.	4GG/	-li-	.	.	4B-/	-li-	4b-y\	-li-
.	.	.	.	2AA/	-us	.	.	2c/	-us	2a\	-us
*	*	*	*	*	*	*	*	*custos:d	*	*	*
!	!	!	!	!	!	!	!	!LO:LB:g=original	!	!	!
=61-	=61-	=61-	=61-	=61-	=61-	=61-	=61-	=61-	=61-	=61-	=61-
2r	.	2r	.	1BB-	Pa-	2r	.	1d	Pa-	1f	Pa-
2.BB-/	Fi-	2.dd\	fi-	.	.	2B-\	Fi-	.	.	.	.
.	.	.	.	1BB-	-tris,	2F/	-li-	1d	-tris,	1f	-tris
4C/	-li-	4cc\	-li-	.	.	.	.	.	.	.	.
2D/	-us	2b-\	-us	.	.	2B-\	-us	.	.	.	.
=62-	=62-	=62-	=62-	=62-	=62-	=62-	=62-	=62-	=62-	=62-	=62-
1E-X	Pa-	1b-	Pa-	2r	.	1G	Pa-	2r	.	2r	.
*	*	*	*	*	*ij	*	*	*	*Xij	*	*Xij
.	.	.	.	2.E-X\	fi-	.	.	2.e-X\	fi-	2.g/	fi-
1E-	-tris,	1g	-tris	.	.	1G	-tris	.	.	.	.
!	!	!	!	!LO:TX:a:t=d	!	!	!	!	!	!	!
.	.	.	.	4D/	-li-	.	.	4f\	-li-	4f/	-li-
.	.	.	.	2C/	-us	.	.	2g\	-us	2e-X/	-us
=63-	=63-	=63-	=63-	=63-	=63-	=63-	=63-	=63-	=63-	=63-	=63-
!	!	!	!	!LO:N:vis=00	!	!	!	!	!	!	!
2r	.	2r	.	0GG	Pa-	2r	.	0g	Pa-	1d	Pa-
*	*ij	*	*ij	*	*	*	*ij	*	*	*	*
2.G\	Fi-	2.b-\	fi-	.	.	2.B-\	Fi-	.	.	.	.
*	*	*	*	*	*	*	*	*	*	*custos:d	*
!	!	!	!	!	!	!	!	!	!	!LO:LB:g=original	!
.	.	.	.	.	.	.	.	.	.	2d/	-tris,
4A\	-li-	4cc\	-li-	.	.	4A/	-li-	.	.	.	.
*	*	*	*	*	*	*	*	*	*	*	*ij
2B-\	-us	2dd\	-us	.	.	2G/	-us	.	.	2.b-\	fi-
=64-	=64-	=64-	=64-	=64-	=64-	=64-	=64-	=64-	=64-	=64-	=64-
0G	Pa-	2.dd\	Pa-	00D;;	-tris	2.B-\	Pa-	00d;;	-tris.	.	.
.	.	.	.	.	.	.	.	.	.	4a\	-li-
.	.	.	.	.	.	.	.	.	.	2g/	-us
.	.	4cc\	.	.	.	4A/	.	.	.	.	.
.	.	1b-	.	.	.	1G	.	.	.	1g	Pa-
=65-	=65-	=65-	=65-	=65-	=65-	=65-	=65-	=65-	=65-	=65-	=65-
0D;;	-tris	0a;;	-tris	.	.	0A;;	-tris	.	.	0f#X;;	-tris,
*	*Xij	*	*Xij	*	*Xij	*	*Xij	*	*	*	*Xij
!	!	!LO:PB:g=original	!	!LO:PB:g=original	!	!LO:LB:g=original	!	!	!	!	!
=66-	=66-	=66-	=66-	=66-	=66-	=66-	=66-	=66-	=66-	=66-	=66-
*clefF4	*	*clefC1	*	*clefF4	*	*clefC4	*	*clefC3	*	*clefC1	*
*k[b-]	*	*k[b-]	*	*k[b-]	*	*k[b-]	*	*k[b-]	*	*k[b-]	*
*M2/1	*	*M2/1	*	*M2/1	*	*M2/1	*	*M2/1	*	*M2/1	*
*met(C|)	*	*met(C|)	*	*met(C|)	*	*met(C|)	*	*met(C|)	*	*met(C|)	*
0r	.	0r	.	0D	Qui	0r	.	0f#X	Qui	0a	Qui
=67-	=67-	=67-	=67-	=67-	=67-	=67-	=67-	=67-	=67-	=67-	=67-
!	!	!	!	!	!	!	!	!	!	!LO:TX:a:t=P:problem:# above	!
!	!	!	!	!	!	!	!	!	!	!LO:N:acc=#	!
0GG	Qui	0g	Qui	1G	tol-	0G	Qui	1g	tol-	0bn	tol-
.	.	.	.	1G	-lis,	.	.	1d	-lis	.	.
=68-	=68-	=68-	=68-	=68-	=68-	=68-	=68-	=68-	=68-	=68-	=68-
1C	tol-	1g	tol-	2r	.	1G	tol-	2r	.	2r	.
.	.	.	.	2C/	pec-	.	.	2e\	pec-	2cc\	pec-
1C	-lis,	1g	-lis,	2C/	-ca-	1G	-lis	2e\	-ca-	2cc\	-ca-
.	.	.	.	2C/	-ta	.	.	2e\	-ta	2g/	-ta
=69-	=69-	=69-	=69-	=69-	=69-	=69-	=69-	=69-	=69-	=69-	=69-
2r	.	2r	.	1F	mun-	2r	.	1fny	mun-	1a	mun-
2FF/	pec-	2a\	pec-	.	.	2F/	pec-	.	.	.	.
2FF/	-ca-	2a\	-ca-	1F	-di,	2F/	-ca-	1f	-di,	1cc	-di,
2FF/	-ta	2a\	-ta	.	.	2F/	-ta	.	.	.	.
=70-	=70-	=70-	=70-	=70-	=70-	=70-	=70-	=70-	=70-	=70-	=70-
1BB-	mun-	1b-	mun-	1r	.	1F	mun-	1r	.	1r	.
1BB-	-di,	1b-	-di,	2r	.	1F	-di,	2r	.	2r	.
.	.	.	.	1A\	mi-	.	.	1f\	mi-	1dd\	mi-
=71-	=71-	=71-	=71-	=71-	=71-	=71-	=71-	=71-	=71-	=71-	=71-
00r	.	1r	.	.	.	00r	.	.	.	.	.
.	.	.	.	2F\	-ſe-	.	.	2f\	-ſe-	2cc\	-ſe-
.	.	0r	.	2G\	-re-	.	.	2d\	-re-	2b-y\	-re-
.	.	.	.	2D/	-re	.	.	2d\	-re	2a\	-re
=72-	=72-	=72-	=72-	=72-	=72-	=72-	=72-	=72-	=72-	=72-	=72-
.	.	.	.	1E-X	nos-	.	.	2B-/	no-	1g	noſ-
.	.	.	.	.	.	.	.	2c/	.	.	.
!	!	!LO:TX:t=P:problem: VHV nie wyświetla pauzy	!	!	!	!	!	!	!	!	!
!	!	!	!	!LO:N:vis=0.	!	!	!	!	!	!	!
.	.	1r	.	0D	-tri,	.	.	0d	-bis,	0f#X	-tri,
=73-	=73-	=73-	=73-	=73-	=73-	=73-	=73-	=73-	=73-	=73-	=73-
0D	Qjui	0a	Qui	.	.	0d	Qui	.	.	.	.
!	!	!	!	!	!	!	!	!LO:TX:t=P:problem:VHV nie wyświetla pauzy	!	!	!
.	.	.	.	1r	.	.	.	1r	.	1r	.
=74-	=74-	=74-	=74-	=74-	=74-	=74-	=74-	=74-	=74-	=74-	=74-
!	!	!LO:N:acc=#	!	!	!	!	!	!	!	!	!
1G	tol-	1bn	tol-	0GG	Qui	1.d	tol-	0d	Qui	0g	Qui
1G	-lis,	1b	-lis,	.	.	.	.	.	.	.	.
.	.	.	.	.	.	2G/	-lis	.	.	.	.
!	!	!	!	!	!	!	!	!	!	!LO:PB:g=original	!
=75-	=75-	=75-	=75-	=75-	=75-	=75-	=75-	=75-	=75-	=75-	=75-
2r	.	2r	.	1C	tol-	2r	.	1e	tol-	1g	tol-
2C/	pec-	2cc\	pec-	.	.	2G/	pec-	.	.	.	.
2C/	-ca-	2cc\	-ca-	1C	-lis,	2G/	-ca-	1e	-lis	1g	-lis,
2C/	-ta	2g/	-ta	.	.	2c\	-ta	.	.	.	.
=76-	=76-	=76-	=76-	=76-	=76-	=76-	=76-	=76-	=76-	=76-	=76-
1F	mun-	1a	mun-	2r	.	1.c	mun-	2r	.	2r	.
.	.	.	.	2FF/	pec-	.	.	2f\	pec-	2a\	pec-
1F	-di,	1a	-di,	2FF/	-ca-	.	.	2f\	-ca-	2a\	-ca-
.	.	.	.	2FF/	-ta	2A/	-di,	2c/	-ta	2a\	-ta
=77-	=77-	=77-	=77-	=77-	=77-	=77-	=77-	=77-	=77-	=77-	=77-
1r	.	1r	.	1BB-	mun-	1r	.	1d	mun-	1b-	mun-
2r	.	2r	.	1BB-	-di,	2r	.	1d	-di,	1b-	-di,
1B-\	Sus-	1b-y\	Sus-	.	.	1d\	Sus-	.	.	.	.
*	*	*	*	*custos:BB-	*	*	*	*	*	*	*
!	!	!	!	!LO:LB:g=original	!	!	!	!	!	!	!
=78-	=78-	=78-	=78-	=78-	=78-	=78-	=78-	=78-	=78-	=78-	=78-
.	.	.	.	00r	.	.	.	1r	.	00r	.
2F\	-ci-	2a\	-ci-	.	.	2c\	-ci-	.	.	.	.
1G	-pe	1g	-pe	.	.	1B-	-pe	00r	.	.	.
=79-	=79-	=79-	=79-	=79-	=79-	=79-	=79-	=79-	=79-	=79-	=79-
2D/	de-	2f#X/	de-	.	.	2A/	de-	.	.	.	.
2D/	-(pre)-	2f#/	-pre-	.	.	2A/	-pre-	.	.	.	.
*custos:E-	*	*custos:g	*	*	*	*custos:G	*	*	*	*	*
!LO:LB:g=original	!	!LO:LB:g=original	!	!	!	!LO:LB:g=original	!	!	!	!	!
1.E-X	-ca-	1.g	-ca-	.	.	1G	-ca-	.	.	.	.
=80-	=80-	=80-	=80-	=80-	=80-	=80-	=80-	=80-	=80-	=80-	=80-
.	.	.	.	00r	.	1B-	-ti-	.	.	00r	.
2D/	-ti-	2fny/	-ti-	.	.	.	.	.	.	.	.
2C/	-o-	2e-X/	-o-	.	.	4c\	-o-	00r	.	.	.
.	.	.	.	.	.	4G/	-nem	.	.	.	.
2BB-/	-nem	2f/	-nem	.	.	2B-\	no-	.	.	.	.
=81-	=81-	=81-	=81-	=81-	=81-	=81-	=81-	=81-	=81-	=81-	=81-
0F	no-	0f	no-	.	.	2A/	.	.	.	.	.
.	.	.	.	.	.	1B-	.	.	.	.	.
.	.	.	.	.	.	2A/	.	.	.	.	.
=82-	=82-	=82-	=82-	=82-	=82-	=82-	=82-	=82-	=82-	=82-	=82-
0BB-	-ſtram,	0f	-ſtram,	1r	.	0B-	-ſtram,	.	.	1r	.
*	*	*	*	*	*	*	*	*custos:d	*	*	*
!	!	!	!	!	!	!	!	!LO:PB:g=original	!	!	!
.	.	.	.	1BB-	qui	.	.	1d	qui	1fny	qui
=83-	=83-	=83-	=83-	=83-	=83-	=83-	=83-	=83-	=83-	=83-	=83-
*	*	*	*	*	*	*	*	*lig	*	*	*
0r	.	0r	.	0E-X	ſe-	0r	.	1B-	ſe-	0g	se-
.	.	.	.	.	.	.	.	1c	.	.	.
*	*	*	*	*	*	*	*	*Xlig	*	*	*
=84-	=84-	=84-	=84-	=84-	=84-	=84-	=84-	=84-	=84-	=84-	=84-
!	!	!	!	!	!	!	!	!	!	!LO:TX:a:t=P:problem:# below	!
2r	.	2r	.	1D	-des,	2r	.	1d	-des,	1f#X	-des
!	!	!LO:TX:a:t=P:problem:# above	!	!	!	!	!	!	!	!	!
2D/	ad	2f#X/	ad	.	.	2A/	ad	.	.	.	.
2.G\	dex-	2.g/	dex-	0r	.	2.B-\	dex-	0r	.	1r	.
4G\	-te-	4g/	-te-	.	.	4B-\	-te-	.	.	.	.
=85-	=85-	=85-	=85-	=85-	=85-	=85-	=85-	=85-	=85-	=85-	=85-
1F	-ra(m)	2a\	-ra(m)	.	.	2c\	-ra(m)	.	.	0r	.
.	.	1cc	Pa-	.	.	6B-\	.	.	.	.	.
.	.	.	.	.	.	3A/	.	.	.	.	.
1G	Pa-	.	.	1r	.	1d	Pa-	1r	.	.	.
!	!	!LO:N:acc=#	!	!	!	!	!	!	!	!	!
.	.	2bn\	.	.	.	.	.	.	.	.	.
=86-	=86-	=86-	=86-	=86-	=86-	=86-	=86-	=86-	=86-	=86-	=86-
1C	-tris	1cc	-tris;	2r	.	1c	-tris,	2r	.	2r	.
.	.	.	.	1C	mi-	.	.	1e	mi-	1g	mi-
1r	.	1r	.	.	.	1r	.	.	.	.	.
.	.	.	.	2AA/	-ſe-	.	.	2e\	-ſe-	2a\	-ſe-
=87-	=87-	=87-	=87-	=87-	=87-	=87-	=87-	=87-	=87-	=87-	=87-
00r	.	00r	.	1AA	-re-	00r	.	1.e	-re-	1a	-re-
.	.	.	.	1AA	-re	.	.	.	.	2e/	-re
.	.	.	.	.	.	.	.	1A/	-re	1fny/	no-
=88-	=88-	=88-	=88-	=88-	=88-	=88-	=88-	=88-	=88-	=88-	=88-
.	.	.	.	0BB-	noſ-	.	.	.	.	.	.
.	.	.	.	.	.	.	.	4G/	no-	2e/	-bis
.	.	.	.	.	.	.	.	4F/	.	.	.
.	.	.	.	.	.	.	.	1G	.	1d	.
=89-	=89-	=89-	=89-	=89-	=89-	=89-	=89-	=89-	=89-	=89-	=89-
1r	.	1r	.	0AA	-tri,	1r	.	0A	-ſtri,	0c#X	.
1.AA	quo-	1.eny	Quo-	.	.	1.A	Quo-	.	.	.	.
=90-	=90-	=90-	=90-	=90-	=90-	=90-	=90-	=90-	=90-	=90-	=90-
.	.	.	.	1r	.	.	.	1r	.	1r	.
2D/	-ni-	2f#X/	-ni-	.	.	2A/	-ni-	.	.	.	.
1D	-am	1f#	-am	2r	.	1A	-am,	2r	.	2r	.
!	!	!	!	!	!	!	!	!	!	!LO:TX:a:t=P:problem:# below	!
.	.	.	.	1D\	Quo-	.	.	1d\	quo-	1f#X/	quo-
=91-	=91-	=91-	=91-	=91-	=91-	=91-	=91-	=91-	=91-	=91-	=91-
1r	.	1r	.	.	.	1r	.	.	.	.	.
.	.	.	.	2G\	-ni-	.	.	2d\	-ni-	2g/	-ni-
2r	.	2r	.	1G	-am,	2r	.	1d	-am,	1g	-a(m)
!	!	!	!	!	!	!LO:N:acc=#	!	!	!	!	!
2G\	tu	1g\	tu	.	.	2Bn\	tu	.	.	.	.
=92-	=92-	=92-	=92-	=92-	=92-	=92-	=92-	=92-	=92-	=92-	=92-
2Eny\	so-	.	.	1r	.	4c\	ſo-	0r	.	1r	.
.	.	.	.	.	.	4B-y\	.	.	.	.	.
2F\	-lus	1a	so-	.	.	4A/	.	.	.	.	.
.	.	.	.	.	.	4G/	.	.	.	.	.
*	*	*	*	*	*	*custos:F	*	*	*	*	*
!	!	!	!	!	!	!LO:PB:g=original	!	!	!	!	!
0D	San-	.	.	0r	.	2F/	-lus	.	.	0r	.
.	.	2g/	-lus	.	.	2G/	san-	.	.	.	.
=93-	=93-	=93-	=93-	=93-	=93-	=93-	=93-	=93-	=93-	=93-	=93-
.	.	1fny	san-	.	.	2A/	.	1r	.	.	.
!	!	!	!	!	!	!LO:N:acc=#	!	!	!	!	!
.	.	.	.	.	.	2Bn\	.	.	.	.	.
1C	-ctus,	1e	-ctus,	2r	.	1c	-ctus,	2r	.	2r	.
.	.	.	.	2C/	tu	.	.	1g\	tu	2cc\	tu
*	*	*custos:g	*	*	*	*	*	*	*	*	*
!	!	!LO:LB:g=original	!	!	!	!	!	!	!	!	!
=94-	=94-	=94-	=94-	=94-	=94-	=94-	=94-	=94-	=94-	=94-	=94-
0r	.	0r	.	2Eny\	so-	0r	.	.	.	2cc\	ſo-
.	.	.	.	2F\	-lus	.	.	1f	so-	2cny/	-lus
*	*	*	*	*	*	*	*	*	*	*custos:g	*
!	!	!	!	!	!	!	!	!	!	!LO:LB:g=original	!
.	.	.	.	1G	Do-	.	.	.	.	1.g	Do-
.	.	.	.	.	.	.	.	2e\	-lus	.	.
*custos:C	*	*	*	*	*	*	*	*	*	*	*
!LO:LB:g=original	!	!	!	!	!	!	!	!	!	!	!
=95-	=95-	=95-	=95-	=95-	=95-	=95-	=95-	=95-	=95-	=95-	=95-
1r	.	1r	.	1GG	-mi-	1r	.	2.d\	Do-	.	.
.	.	.	.	.	.	.	.	.	.	2g/	-mi-
.	.	.	.	.	.	.	.	4d\	-mi-	.	.
2r	.	2r	.	1C	-nus,	2r	.	1e	-nus,	1g	-nus,
2C/	tu	2g/	tu	.	.	2c\	tu	.	.	.	.
=96-	=96-	=96-	=96-	=96-	=96-	=96-	=96-	=96-	=96-	=96-	=96-
1F	so-	1a	so-	2r	.	1c	so-	2r	.	2r	.
.	.	.	.	2F\	tu	.	.	2f\	tu	2cc\	tu
1BB-	-lus,	1b-y	-lus	1B-	so-	1B-y	-lus	1f	ſo-	1dd	ſo-
*	*	*	*	*custos:G	*	*	*	*custos:g	*	*	*
!	!	!	!	!LO:LB:g=original	!	!	!	!LO:LB:g=original	!	!	!
=97-	=97-	=97-	=97-	=97-	=97-	=97-	=97-	=97-	=97-	=97-	=97-
00r	.	00r	.	2G\	-lus	00r	.	2g\	-lus	2b-\	-lus
.	.	.	.	2D/	al-	.	.	2f\	al-	2a\	al-
.	.	.	.	1.A	-tiſ-	.	.	1.e	-tiſ-	1.a	-tiſ-
=98-	=98-	=98-	=98-	=98-	=98-	=98-	=98-	=98-	=98-	=98-	=98-
.	.	.	.	2A\	-si-	.	.	2e\	-si-	2a\	-si-
.	.	.	.	0D	-mus,	.	.	0f	-mus	0a	-mus
=99-	=99-	=99-	=99-	=99-	=99-	=99-	=99-	=99-	=99-	=99-	=99-
1r	.	1r	.	.	.	1r	.	.	.	.	.
0BB-	Je-	0b-	Je-	0BB-	Je-	0B-	Je-	2.f\	Je-	0dd	Je-
.	.	.	.	.	.	.	.	4e\	.	.	.
=100-	=100-	=100-	=100-	=100-	=100-	=100-	=100-	=100-	=100-	=100-	=100-
.	.	.	.	.	.	.	.	1d	.	.	.
1BB-	-su	2b-\	-su	1BB-	-su	1B-	-su	1d	-su	1dd	-su
.	.	1b-\	Chri-	.	.	.	.	.	.	.	.
=101-	=101-	=101-	=101-	=101-	=101-	=101-	=101-	=101-	=101-	=101-	=101-
0F	Chri-	.	.	0FF	Chri-	0c	Chri-	0f	Chri-	0cc	Chri-
.	.	4a\	.	.	.	.	.	.	.	.	.
.	.	4g/	.	.	.	.	.	.	.	.	.
.	.	1a	.	.	.	.	.	.	.	.	.
=102-	=102-	=102-	=102-	=102-	=102-	=102-	=102-	=102-	=102-	=102-	=102-
0BB-	-ſte.	0b-	-ste.	0BB-	-ſte,	0B-	-ſte.	0f	-ſte	0dd	-ſte
=103-	=103-	=103-	=103-	=103-	=103-	=103-	=103-	=103-	=103-	=103-	=103-
0r	.	00r	.	2F\	c(um)	0r	.	2c/	Cum	2a\	C(um)
.	.	.	.	1F	San-	.	.	1f	San-	1a	ſan-
.	.	.	.	2G\	-cto	.	.	2d\	.	2g/	-cto
=104-	=104-	=104-	=104-	=104-	=104-	=104-	=104-	=104-	=104-	=104-	=104-
*	*	*	*	*	*	*	*	*lig	*	*	*
00r	.	.	.	4C/	spi-	00r	.	1e-X	-cto	1.g	Spi-
.	.	.	.	4D/	.	.	.	.	.	.	.
.	.	.	.	4E-X\	.	.	.	.	.	.	.
.	.	.	.	4C/	.	.	.	.	.	.	.
.	.	.	.	1.D	.	.	.	1d	.	.	.
.	.	.	.	.	.	.	.	.	.	4fny/	.
.	.	.	.	.	.	.	.	.	.	4e/	.
*	*	*	*	*	*	*	*	*Xlig	*	*	*
=105-	=105-	=105-	=105-	=105-	=105-	=105-	=105-	=105-	=105-	=105-	=105-
!	!	!	!	!	!	!	!	!	!	!LO:TX:a:t=P:problem:# below	!
.	.	0r	.	.	.	.	.	2d\	Spi-	2f#X/	.
.	.	.	.	2D/	-ri-	.	.	2d\	-ri-	2f#/	-ri-
.	.	.	.	1GG	-tu.	.	.	1d	-tu,	1g	-tu.
=106-	=106-	=106-	=106-	=106-	=106-	=106-	=106-	=106-	=106-	=106-	=106-
*M3/1	*	*M3/1	*	*M3/1	*	*M3/1	*	*M3/1	*	*M3/1	*
*met(3)	*	*met(3)	*	*met(3)	*	*met(3)	*	*met(3)	*	*met(3)	*
!	!	!	!	!LO:TX:t=P:problem: VHV nie wyświetla pauzy	!	!	!	!	!	!LO:TX:t=P:problem: VHV nie wyświetla pauzy	!
!	!	!	!	!LO:N:vis=0	!	!	!	!LO:TX:t=P:problem: VHV nie wyświetla pauzy	!	!	!
1G	in	1dd	in	1%3r	.	1B-	in	1%3r	.	1%3r	.
1G	glo-	1b-	glo-	.	.	1d	glo-	.	.	.	.
1B-	-ri-	1dd	-ri-	.	.	1d	-ri-	.	.	.	.
=107-	=107-	=107-	=107-	=107-	=107-	=107-	=107-	=107-	=107-	=107-	=107-
1F	-a	1a	-a,	1F	in	1c	-a,	1f	in	1a	in
1r	.	1r	.	1D	glo-	1r	.	1f	glo-	1a	glo-
1r	.	1r	.	1F	-ri-	1r	.	1f	-ri-	1a	-ri-
=108-	=108-	=108-	=108-	=108-	=108-	=108-	=108-	=108-	=108-	=108-	=108-
*	*ij	*	*ij	*	*	*	*ij	*	*	*	*
1C	in	1cc	in	1C	-a	1G	in	1eny	-a,	1g	-a
1AA	glo-	1cc	glo-	1r	.	1A	glo-	1r	.	1r	.
1C	-ri-	1cc	-ri-	1r	.	1G	-ri-	1r	.	1r	.
=109-	=109-	=109-	=109-	=109-	=109-	=109-	=109-	=109-	=109-	=109-	=109-
*	*	*	*	*	*	*	*	*	*	*	*ij
0.GG	-a	0.b-	-a,	1G	in	0.G	-a,	1g	in	1dd	in
*	*	*	*	*custos:G	*	*	*Xij	*custos:g	*	*	*
!	!	!	!	!LO:LB:g=original	!	!	!	!LO:LB:g=original	!	!	!
.	.	.	.	1G	glo-	.	.	1g	glo-	1b-	glo-
.	.	.	.	1G	-ri-	.	.	1d	-ri-	1dd	-ri-
*	*Xij	*	*Xij	*	*	*custos:A	*	*	*	*	*
!	!	!	!	!	!	!LO:LB:g=original	!	!	!	!	!
=110-	=110-	=110-	=110-	=110-	=110-	=110-	=110-	=110-	=110-	=110-	=110-
1F	in	1cc	in	0.F	-a	1A	in	0.f	-a,	0.a	-a
1F	glo-	1a	glo-	.	.	1c	glo-	.	.	.	.
!L	!	!	!	!	!	!	!	!	!	!	!
1F	-ri-	1cc	-ri-	.	.	1A	-ri-	.	.	.	.
*custos:E-	*	*	*	*	*ij	*	*	*	*	*	*Xij
!LO:PB:g=original	!	!	!	!	!	!	!	!	!	!	!
=111-	=111-	=111-	=111-	=111-	=111-	=111-	=111-	=111-	=111-	=111-	=111-
0.E-X	-a,	0.g	-a,	1E-X	in	0.B-	-a,	1g	in	1b-	in
.	.	.	.	1E-	glo-	.	.	1e-X	glo-	1g	glo-
.	.	.	.	1E-	-ri-	.	.	1B-	-ri-	1b-	-ri-
*	*	*custos:a	*	*	*	*	*	*	*	*	*
!	!	!LO:LB:g=original	!	!	!	!	!	!	!	!	!
=112-	=112-	=112-	=112-	=112-	=112-	=112-	=112-	=112-	=112-	=112-	=112-
*	*ij	*	*ij	*	*	*	*ij	*	*	*	*
1D	in	1a	in	0.D	-a	1A	in	0.d	-a,	0fny	-a,
1D	glo-	1f	glo-	.	.	1A	glo-	.	.	.	.
1D	-ri-	1a	-ri-	.	.	1F	-ri-	.	.	1r	.
=113-	=113-	=113-	=113-	=113-	=113-	=113-	=113-	=113-	=113-	=113-	=113-
*	*	*	*	*	*	*	*	*	*ij	*	*ij
0.C	-a,	0.cc	-a,	1C	in	0.G	-a,	1e-X	in	1g	in
.	.	.	.	1C	glo-	.	.	1e-	glo-	1g	glo-
.	.	.	.	1C	-ri-	.	.	1e-	-ri-	1c	-ri-
*	*Xij	*	*Xij	*	*	*	*Xij	*	*	*	*
=114-	=114-	=114-	=114-	=114-	=114-	=114-	=114-	=114-	=114-	=114-	=114-
1B-	in	1b-	in	1BB-	-a	1d	in	1d	-a,	1f	-a,
1G	glo-	1b-	glo-	1r	.	1d	glo-	1r	.	1r	.
1B-	-ri-	1b-	-ri-	1r	.	1d	-ri-	1r	.	1r	.
*	*	*	*	*	*	*	*	*	*Xij	*	*Xij
=115-	=115-	=115-	=115-	=115-	=115-	=115-	=115-	=115-	=115-	=115-	=115-
1F	-a,	1a	-a	1F	in	1c	-a,	1f	in	1a	in
1r	.	1r	.	1D	glo-	1r	.	1f	glo-	1a	glo-
1r	.	1r	.	1F	-ri-	1r	.	1f	-ri-	1a	-ri-
=116-	=116-	=116-	=116-	=116-	=116-	=116-	=116-	=116-	=116-	=116-	=116-
*	*ij	*	*	*	*	*	*ij	*	*	*	*
1B-	in	1b-	in	1BB-	-a	1d	in	1f	-a,	1b-	-a
1G	glo-	1b-	glo-	1r	.	1d	glo-	1r	.	1r	.
1B-	-ri-	1b-	-ri-	1r	.	1d	-ri-	1r	.	1r	.
=117-	=117-	=117-	=117-	=117-	=117-	=117-	=117-	=117-	=117-	=117-	=117-
!	!	!	!	!LO:TX:t=P:problem: VHV nie wyświetla pauzy	!	!	!LO:TX:t=P:problem:VHV nie wyświetla pauzy	!	!	!	!
!	!	!	!	!LO:N:vis=0	!	!	!	!LO:N:vis=0	!	!LO:TX:t=P:problem: VHV nie wyświetla pauzy	!
!	!	!	!	!	!	!	!	!	!	!LO:N:vis=0	!
0F	-a,	0a	-a	1%3r	.	0c	-a,	1%3r	.	1%3r	.
*	*Xij	*	*	*	*	*	*Xij	*	*	*	*
1G	DE-	1g	DE-	.	.	1B-	DE-	.	.	.	.
=118-	=118-	=118-	=118-	=118-	=118-	=118-	=118-	=118-	=118-	=118-	=118-
*col	*	*col	*	*	*	*	*	*	*	*	*
!	!	!	!	!	!	!	!	!LO:N:vis=00	!	!LO:TX:t=P:problem: VHV nie wyświetla pauzy	!
!	!	!	!	!	!	!	!	!	!	!LO:N:vis=00	!
1D	-I	1a	I	1%3ryy	.	0d	-i	1%3r	.	1%3r	.
*	*	*Xcol	*	*	*	*	*	*	*	*	*
0G	Pa-	0a	Pa-	.	.	.	.	.	.	.	.
.	.	.	.	.	.	1c#X	Pa-	.	.	.	.
*Xcol	*	*	*	*	*	*	*	*	*	*	*
=119-	=119-	=119-	=119-	=119-	=119-	=119-	=119-	=119-	=119-	=119-	=119-
!	!	!	!	!LO:N:vis=00	!	!	!	!	!	!	!
0.D	-tris,	0.a	-tris,	1%3r	.	0.d	-tris,	1%3ryy	.	1%3ryy	.
=120-	=120-	=120-	=120-	=120-	=120-	=120-	=120-	=120-	=120-	=120-	=120-
*	*	*	*ij	*	*	*	*	*	*ij	*	*ij
1BB-	in	1b-	in	1BB-	in	1D	in	1f	in	1dd	in
1BB-	glo-	1b-	glo-	1D	glo-	1D	glo-	1f	glo-	1dd	glo-
1BB-	-ri-	1b-	-ri-	1BB-	-ri-	1F	-ri-	1f	-ri-	1dd	-ri-
*	*	*	*	*	*	*custos:F	*	*	*	*custos:cc	*
!	!	!	!	!	!	!LO:LB:g=original	!	!	!	!LO:LB:g=original	!
=121-	=121-	=121-	=121-	=121-	=121-	=121-	=121-	=121-	=121-	=121-	=121-
0FF	-a,	0a	-a	0F	-a	0F	-a	0f	-a,	0cc	-a
*	*	*	*	*	*Xij	*	*	*	*Xij	*	*Xij
1C	DE-	1g	DE-	1C	De-	1G	DE-	1eny	DE-	1cc	De-
*custos:GG	*	*	*	*	*	*	*	*	*	*	*
!LO:LB:g=original	!	!	!	!	!	!	!	!	!	!	!
=122-	=122-	=122-	=122-	=122-	=122-	=122-	=122-	=122-	=122-	=122-	=122-
*col	*	*	*	*	*	*	*	*col	*	*col	*
1GG	-I	0g	-I	1G	-i	1B-	-I	1d	-I	1b-	-i
*	*	*	*	*	*	*lig	*	*	*	*	*
0C	Pa-	.	.	0D	Pa-	1d	Pa-	0d	Pa-	0a	Pa-
*Xcol	*	*	*	*	*	*	*	*Xcol	*	*Xcol	*
!	!	!LO:TX:b:t=P:problem:# below	!	!	!	!	!	!	!	!	!
.	.	1f#X	Pa-	.	.	1D	.	.	.	.	.
*	*	*	*	*	*	*Xlig	*	*	*	*	*
!	!	!	!	!	!	!	!	!LO:LB:g=original	!	!	!
=123-	=123-	=123-	=123-	=123-	=123-	=123-	=123-	=123-	=123-	=123-	=123-
0.GG	-tris	0.g	-tris	1.G	-tris	0.D,<	-tris,	0.d,	-tris,	0.b-	-tris,
.	.	.	.	2G\	in	.	.	.	.	.	.
.	.	.	.	1B-	glo-	.	.	.	.	.	.
*	*	*	*Xij	*	*	*	*	*	*	*	*
=124-	=124-	=124-	=124-	=124-	=124-	=124-	=124-	=124-	=124-	=124-	=124-
*	*ij	*	*	*	*	*	*ij	*	*	*	*
1BB-	in	1fny	in	1BB-	-ri-	1D	in	1d	in	1dd	in
1BB-	glo-	1b-	glo-	1D	-a	1D	glo-	1d	glo-	1dd	glo-
1BB-	-ri-	1b-	-ri-	1BB-	DE-	1F	-ri-	1d	-ri-	1dd	-ri-
=125-	=125-	=125-	=125-	=125-	=125-	=125-	=125-	=125-	=125-	=125-	=125-
0FF	-a	0a	-a	0F	-I	0F	-a	0f	-a	0cc	-a
1C	DE-	1g	DE-	1C	Pa-	1G	DE-	1e	DE-	1cc	DE-
*	*	*custos:g	*	*	*	*	*	*	*	*	*
!	!	!LO:LB:g=original	!	!	!	!	!	!	!	!	!
=126-	=126-	=126-	=126-	=126-	=126-	=126-	=126-	=126-	=126-	=126-	=126-
*col	*	*	*	*col	*	*	*	*col	*	*col	*
1GG	-I	0g	-I	1G	-tris	1B-	-I	1d	-I	1b-	-I
*	*	*	*	*Xcol	*	*lig	*	*	*	*	*
0D	Pa-	.	.	0D	.	1d	Pa-	0d	Pa-	0a	Pa-
*Xcol	*	*	*	*	*	*	*	*Xcol	*	*Xcol	*
!	!	!LO:TX:a:t=P:problem:# below	!	!	!	!	!	!	!	!	!
.	.	1f#X	Pa-	.	.	1D	.	.	.	.	.
*	*	*	*	*	*	*Xlig	*	*	*	*	*
=127-	=127-	=127-	=127-	=127-	=127-	=127-	=127-	=127-	=127-	=127-	=127-
!	!	!	!	!	!	!	!	!	!	!LO:N:acc=#	!
0GG	-tris	0g	-tris	0G	A-	0.D	-tris,	0d	-tris	0bn	-tris
*	*Xij	*	*	*	*	*	*Xij	*	*	*	*
0C	A-	0g	A-	0C	.	.	.	0e-X	A-	0cc	A-
=128-	=128-	=128-	=128-	=128-	=128-	=128-	=128-	=128-	=128-	=128-	=128-
.	.	.	.	.	.	1r	.	.	.	.	.
!	!	!	!	!	!	!	!	!	!	!LO:N:acc=#	!
0GG;;	-men.	0g;;	-men.	0G;;	-men.	1G	A-	0d;;	-men.	0bn;;	-men.
.	.	.	.	.	.	1G;;	-men.	.	.	.	.
==	==	==	==	==	==	==	==	==	==	==	==
*-	*-	*-	*-	*-	*-	*-	*-	*-	*-	*-	*-
!!!system-decoration: [(s1,s2,s3,s4,s5,s6)]
!!!RDF**kern: < = below
!!!ENC: Berenika Jozajtis
!!!END: 2022-06-18
!!!ENC: Jan Barakat
!!!END: 2022-07-27
!!!YEC: Copyright 2022 Narodowy Instytut Fryderyka Chopina (https://polishscores.org)
!!!YEM: Licence CC BY 4.0 (https://creativecommons.org/licenses/by/4.0)
